X:1
T:James Gibb editions
T:Todo mi bien he perdido - Ponce
T:#
%%score [ 1 2 3 4 ]
L:1/8
Q:1/4=160
M:none
K:C
V:1 treble nm="Soprano" snm="S"
V:2 treble nm="Alto" snm="A"
V:3 treble nm="Tenor" snm="T"
V:4 bass nm="Bass" snm="B"
V:1
"^Todo mi bien he perdido""^Juan Ponce\n(1480-1521)" A12 A4 | A8 G8 | z4 (c8 B4- | B4 A8) A4 | %4
w: To- do|mi bien|he *|* * per-|
w: ||||
w: ||||
 (E4 A8 ^G4) | A8 z8 | A8 B8 | (G6 F2) (G4 A4- | A2 G2) G8 ^F4 | G8 z8 | G4 G4 F4 F4 | %11
w: di\- * *|do|y no|lo * pue\- *|* * do ha-|llar;|a- yu- dád- me-|
w: |||||||
w: |||||||
 G4 G4 (E4 F4- | F2 E2 E8 D4) | E16- | E16 || G8 G8 | F8 z4 F4 | G8 A8 | (B4 c8 B4) | c8 z8 | %20
w: la a bus\- *||car.||Ven- ci-|me de~~u-|na se-|ño\- * *|ra|
w: |||||||||
w: ||||Pre- gun-|té por|nue- vas|del\- * *|la|
 c4 c4 (c4 c4) | B8 A8 | (G8 A8) | ^G16 | G8 G8 | F8 z4 F4 | G8 A8 | (B4 c8 B4) | c8 z8 | %29
w: que ro- bó mi|pen- sa-|mien\- *|to,|y sin|mi con-|sen- ti-|mien\- * *|to,|
w: |||||||||
w: a mi tri\- *|ste co-|ra\- *|zón;|dí- jo-|me que|no~~es in-|ten\- * *|ción|
 c4 c4 c4 c4 | B8 A8 | (G8 A8) | ^G16 || A12 A4 | A8 G8 | z4 (c8 B4- | B4 A8) A4 | (E4 A8 ^G4) | %38
w: de- sa- pa- re-|ció~~a des-|ho\- *|ra:|fue- se|de mi|la *|* * trai-|do\- * *|
w: |||||||||
w: que se- pas a-|go- ra|del\- *|la.|De- jo-|me con|gran *|* * que-|rel\- * *|
 A8 z8 | A8 B8 | (G6 F2) (G4 A4- | A2 G2) G8 ^F4 | G8 z8 | G4 G4 F4 F4 | G4 G4 (E4 F4- | %45
w: ra|do no|la * pue\- *|* * do ha-|llar;|||
w: |||||a- yu- dád- me-|la a bus\- *|
w: la|y con|muy * ma\- *|* * yor pe-|nar;|||
 F2 E2 E8 D4) | E16- | E16 |] %48
w: |||
w: |car.||
w: |||
V:2
 E12 E4 | D8 E8 | z4 G8 (G4- | G4 F8 E4- | E4) (D4 E8) | C8 z8 | (E6 F2) G8 | (D6 C2) (D2 E2 F4- | %8
w: To- do|mi bien|he per\-||* di\- *|do|y * no|lo * pue\- * *|
w: ||||||||
w: ||||||||
 F2 E2) C4 D8 | D8 z8 | E4 E4 D4 D4 | B,4 B,4 (C4 D4- | D2 C2 B,4 A,8 | B,8 C8) | B,16 || D8 E8 | %16
w: * * do ha-|llar;|a- yu- dád- me-|la` a bus\- *|||car.|Ven- ci-|
w: ||||||||
w: |||||||Pre- gun-|
 D8 D4 D4 | (D6 E2) F8 | (G4 F4 G8) | E8 z8 | G4 G4 (A4 A4) | G8 F8 | (E8 D8) | E16 | D8 E8 | %25
w: me de u-|na * se-|ño\- * *|ra|que ro- bó mi|pen- sa-|mien\- *|to,|y sin|
w: |||||||||
w: té por nu-|e\- * vas|del\- * *|la|a mi tri\- *|ste co-|ra\- *|zón;|dí- jo-|
 D8 D8 | (D6 E2) F8 | (G4 F4 G8) | E8 z8 | G4 G4 A4 A4 | G8 F8 | (E8 D8) | E16 || E12 E4 | D8 E8 | %35
w: mi con-|sen\- * ti-|mien\- * *|to,|de- sa- pa- re-|ció~~a des-|ho\- *|ra:|fue- se|de mi|
w: ||||||||||
w: me que|no es in-|ten\- * *|ción|que se- pas a-|go- ra|del\- *|la.|De- jo-|me con|
 z4 G8 (G4- | G4 F8 E4- | E4) (D4 E8) | C8 z8 | (E6 F2) G8 | (D6 C2) (D2 E2 F4- | F2 E2) C4 D8 | %42
w: la trai\-||* do\- *|ra|do * no|la * pue\- * *|* * do ha-|
w: |||||||
w: gran que\-||* rel\- *|la|y * con|muy * ma\- * *|* * yor pe-|
 D8 z8 | E4 E4 D4 D4 | B,4 B,4 (C4 D4- | D2 C2 B,4 A,8 | B,8 C8) | B,16 |] %48
w: llar;||||||
w: |a- yu- dád- me-|la a bus\- *|||car.|
w: nar;||||||
V:3
 A8 c8 | A8 B8 | z4 e8 (d4 | e4 c4 d4 c4- | c4) (A4 B8) | A8 z8 | c8 d8 | (B6 A2) (B4- c4- | %8
w: To- do|mi bien|he per\-||* di\- *|do|y no|lo * pue\- *|
w: ||||||||
w: ||||||||
 c2 B2) G4 A8 | B8 z8 | c4 c4 A4 A4 | G4 G4 (A8- | A4 G4 A8 | G8 A8) | ^G16 || B8 c8 | A8 A4 A4 | %17
w: * * do ha-|llar;|a- yu- dád- me-|la a bus\-|||car.|Ven- ci-|me de u-|
w: |||||||||
w: |||||||Pre- gun-|té por nu-|
 B8 c4 (d4- | d4 c4 d8) | c8 z8 | e4 e4 (f4 f4) | d8 d8 | (B8 A8) | B16 | B8 c8 | A8 A8 | %26
w: na se- ño\-||ra|que ro- bó mi|pen- sa-|mien\- *|to,|y sin|mi con-|
w: |||||||||
w: e- vas del\-||la|a mi tri\- *|ste co-|ra\- *|zón;|dí- jo-|me que|
 B8 c4 (d4- | d4 c4 d8) | c8 z8 | e4 e4 f4 f4 | d8 d8 | (B8 A8) | B16 || A8 c8 | A8 B8 | %35
w: sen- ti- mien\-||to,|de- sa- pa- re-|ció~~a des-|ho\- *|ra:|fue- se|de mi|
w: |||||||||
w: no~~es in- ten\-||ción|que se- pas a-|go- ra|del\- *|la.|De- jo-|me con|
 z4 e8 (d4 | e4 c4 d4 c4- | c4) (A4 B8) | A8 z8 | c8 d8 | (B6 A2) (B4 c4- | c2 B2) G4 A8 | B8 z8 | %43
w: la trai\-||* do\- *|ra|do no|la * pue\- *|* * do ha-|llar;|
w: ||||||||
w: gran que\-||* rel\- *|la|y con|muy * ma\- *|* * yor pe-|nar;|
 c4 c4 A4 A4 | G4 G4 (A8- | A4 G4 A8 | G8 A8) | ^G16 |] %48
w: |||||
w: a- yu- dád- me-|la a bus\-|||car.|
w: |||||
V:4
 A,12 A,4 | F,8 E,8 | z4 C,8 (G,4 | E,4 F,4 D,4 A,4- | A,4) (F,4 E,8) | A,,8 z8 | A,8 G,8 | %7
w: To- do|mi bien|he per\-||* di\- *|do|y no|
w: |||||||
w: |||||||
 z4 G,8 F,4- | F,4 E,4 D,8 | G,8 z8 | C,4 C,4 D,4 D,4 | E,4 E,4 (A,,4 D,4- | D,4 E,4 F,8 | %13
w: lo pue\-|* do ha-|llar;|a- yu- dád- me-|la a bus\- *||
w: ||||||
w: ||||||
 E,8 A,,8) | E,16 || G,8 C,8 | D,8 D,4 D,4 | G,8 (F,4 D,4) | (G,4 A,4 G,8) | C,8 z8 | %20
w: |car.|Ven- ci-|me de u-|na se\- *|ño\- * *|ra|
w: |||||||
w: ||Pre- gun-|té por nu-|e- vas *|del\- * *|la|
 C4 C4 (F,4 F,4) | G,8 D,8 | (E,8 F,8) | E,16 | G,8 C,8 | D,8 D,8 | G,8 (F,4 D,4) | (G,4 A,4 G,8) | %28
w: que ro- bó mi|pen- sa-|mien\- *|to,|y sin|mi con-|sen- ti\- *|mien\- * *|
w: ||||||||
w: a mi tri\- *|ste co-|ra\- *|zón;|dí- jo-|me que|no~es in\- *|ten\- * *|
 C,8 z8 | C4 C4 F,4 F,4 | G,8 D,8 | (E,8 F,8) | E,16 || A,12 A,4 | F,8 E,8 | z4 C,8 (G,4 | %36
w: to,|de- sa- pa- re-|ció~~a des-|ho\- *|ra:|fue- se|de mi|la trai\-|
w: ||||||||
w: ción|que se- pas a-|go- ra|del\- *|la.|De- jo-|me con|gran que\-|
 E,4 F,4 D,4 A,4- | A,4) (F,4 E,8) | A,,8 z8 | A,8 G,8 | z4 G,8 F,4- | F,4 E,4 D,8 | G,8 z8 | %43
w: |* do\- *|ra|do no|la pue\-|* do ha-|llar;|
w: |||||||
w: |* rel\- *|la|y con|muy ma\-|* yor pe-|nar;|
 C,4 C,4 D,4 D,4 | E,4 E,4 (A,,4 D,4- | D,4 E,4 F,8 | E,8 A,,8) | E,16 |] %48
w: |||||
w: a- yu- dád- me-|la a bus\- *|||car.|
w: |||||

